azure-patterns/svg-databox-data-dark.svg

<svg xmlns="http://www.w3.org/2000/svg" viewBox="0 0 126 121">
                                
                            
<path d="M61.4881 72.9415V70.5386V61.085C61.4881 59.8835 60.4791 58.9034 59.2494 58.9034H49.7586C49.2857 58.9034 48.9073 58.7453 48.6235 58.4607C48.3398 58.1762 48.1821 57.7968 48.1821 57.3225C48.1821 56.9115 48.3398 56.5321 48.6866 56.121L64.452 40.3439C64.7357 40.0594 65.0826 39.9329 65.524 39.9013C62.0556 25.7999 49.8217 15.05 34.7815 14.3544C15.264 13.4691 -0.848222 29.6572 0.0346391 49.1968C0.854439 67.0607 15.8 81.004 33.6464 81.004H61.5196V80.9091V72.9415H61.4881Z" fill="#1A1A1F"></path>
<path d="M80.3752 87.9914V81.0039H93.2082C111.275 81.0039 126 66.8393 126 49.4497C126 32.7557 112.284 19.0969 95.1316 18.433C88.6993 7.05069 76.3393 0 62.6234 0C53.5425 0 45.1869 3.13013 38.7861 8.47348C46.9841 9.76979 54.583 13.5955 60.5739 19.6344C67.6052 26.6851 71.6727 35.9174 72.1457 45.7505L82.5508 56.1526C82.8346 56.4372 82.9922 56.8166 82.9922 57.2908C82.9922 57.7335 82.8346 58.0813 82.5193 58.3974C82.204 58.7136 81.8256 58.8717 81.4157 58.8717H72.2087V79.8973V79.9922V90.3943V99.7847C72.2087 101.018 71.1997 102.03 69.9385 102.03H70.0016H60.5108C60.0694 102.03 59.7226 102.188 59.4072 102.504C59.0919 102.82 58.9343 103.199 58.9343 103.61C58.9343 104.085 59.0919 104.464 59.3757 104.749L75.2042 120.557C75.4879 120.842 75.8663 121 76.3393 121C76.8122 121 77.1906 120.842 77.4744 120.557L93.2397 104.78C93.555 104.369 93.7442 103.99 93.7442 103.579C93.7442 103.105 93.5866 102.725 93.3028 102.441C93.019 102.156 92.6407 101.998 92.1677 101.998H82.6769C81.4472 101.998 80.4383 101.018 80.4383 99.8163V90.3627V87.9914H80.3752Z" fill="black"></path>
</svg>

<svg xmlns="http://www.w3.org/2000/svg" viewBox="0 0 126 121"><path d="M61.488 72.942V61.085c0-1.202-1.009-2.182-2.239-2.182h-9.49c-.473 0-.852-.158-1.136-.442-.283-.285-.44-.664-.44-1.139 0-.41.157-.79.504-1.201l15.765-15.777c.284-.285.63-.411 1.072-.443C62.056 25.8 49.822 15.05 34.782 14.354 15.264 13.47-.849 29.657.035 49.197.855 67.06 15.8 81.004 33.646 81.004H61.52v-8.063h-.032z" fill="#1A1A1F"/><path d="M80.375 87.991v-6.987h12.833C111.275 81.004 126 66.839 126 49.45c0-16.694-13.716-30.353-30.868-31.017C88.699 7.051 76.339 0 62.623 0c-9.08 0-17.436 3.13-23.837 8.473a39.193 39.193 0 0 1 21.788 11.161c7.031 7.051 11.099 16.283 11.572 26.117L82.55 56.153c.284.284.441.664.441 1.138 0 .443-.157.79-.473 1.106a1.528 1.528 0 0 1-1.103.475h-9.207v40.912a2.257 2.257 0 0 1-2.27 2.246h.063-9.491c-.442 0-.788.158-1.104.474a1.534 1.534 0 0 0-.473 1.106c0 .475.158.854.442 1.139l15.828 15.808c.284.285.662.443 1.135.443s.852-.158 1.135-.443L93.24 104.78c.315-.411.504-.79.504-1.201 0-.474-.157-.854-.441-1.138-.284-.285-.662-.443-1.135-.443h-9.491c-1.23 0-2.239-.98-2.239-2.182V87.991h-.063z"/></svg>
